images/icons/rename-icon.svg

<svg width="15px" height="16px" viewBox="0 0 15 16" version="1.1" xmlns="http://www.w3.org/2000/svg" xmlns:xlink="http://www.w3.org/1999/xlink">
    <!-- Generator: Sketch 50.2 (55047) - http://www.bohemiancoding.com/sketch -->
    <desc>Created with Sketch.</desc>
    <defs></defs>
    <g id="Wireframes---Desktop" stroke="none" stroke-width="1" fill="none" fill-rule="evenodd" opacity="0.5">
        <g id="Dash---My-Files---Estate-Planning---Home-Management-(grid---selected)" transform="translate(-701.000000, -452.000000)" fill="#000000">
            <g id="Group-6" transform="translate(601.000000, 334.000000)">
                <path d="M112.097509,118.949056 C112.081595,118.949993 112.066613,118.952802 112.05257,118.956546 C112.006694,118.966845 111.964563,118.990249 111.932732,119.023955 L100.405737,130.55095 C100.367351,130.589336 100.343946,130.639891 100.338328,130.693257 L100.001295,133.741701 C99.9938055,133.812856 100.019084,133.884009 100.069641,133.934566 C100.121134,133.986058 100.191352,134.011337 100.263441,134.003847 L103.311885,133.666814 C103.365251,133.661196 103.415806,133.637792 103.454193,133.599405 L114.981187,122.072411 C115.072938,121.978788 115.072938,121.828995 114.981187,121.735378 L112.269968,119.024159 C112.225029,118.977348 112.162301,118.950197 112.097701,118.94926 L112.097509,118.949056 Z M112.104999,119.533267 L114.471803,121.900071 L113.453179,122.918696 L111.086375,120.551892 L112.104999,119.533267 Z M110.749342,120.888925 L113.116146,123.255729 L103.177007,133.202297 L100.503178,133.501893 L100.810251,130.820394 L110.749342,120.888925 Z" id="Page-1"></path>
            </g>
        </g>
    </g>
</svg>

<svg height="24" viewBox="0 0 24 24" width="24" xmlns="http://www.w3.org/2000/svg"><path d="m112.09751 118.94906c-.0159.00093-.0309.004-.0449.007-.0459.0103-.088.0337-.11984.0674l-11.52699 11.52699c-.0384.0384-.0618.0889-.0674.14231l-.33703 3.04844c-.0075.0712.0178.14231.0683.19287.0515.0515.12171.0768.1938.0693l3.04845-.33704c.0534-.006.10392-.029.1423-.0674l11.527-11.52699c.0918-.0936.0918-.24341 0-.33703l-2.71122-2.71122c-.0449-.0468-.10767-.074-.17227-.0749zm.007.58421 2.3668 2.3668-1.01862 1.01863-2.3668-2.36681zm-1.35566 1.35566 2.36681 2.3668-9.93914 9.94657-2.67383.29959.30707-2.6815z" fill-rule="evenodd" opacity=".5" transform="matrix(1.58539 0 0 1.58539 -158.539031 -188.444992)"/></svg>
